icons/desktop/16/svg/sync-16.svg

<svg width="16" height="16" viewBox="0 0 16 16" fill="none" xmlns="http://www.w3.org/2000/svg">
<path d="M13.1143 5.38255C13.5182 6.16848 13.75 7.05683 13.75 7.99974C13.75 11.1707 11.171 13.7497 8 13.7497C7.65862 13.7497 7.32478 13.7175 7 13.6599V15.4978C7 15.9438 6.46051 16.1673 6.14551 15.8523L3.64746 13.3533C3.45246 13.1583 3.45246 12.8412 3.64746 12.6462L6.14551 10.1472C6.46044 9.83226 6.99978 10.0559 7 10.5007V12.1257C7.32016 12.2055 7.65449 12.2497 8 12.2497C10.344 12.2497 12.25 10.3437 12.25 7.99974C12.25 7.47983 12.1427 6.98703 11.9707 6.52611L13.1143 5.38255Z" fill="black"/>
<path d="M9 0.500715C9.00022 0.0559617 9.53856 -0.167534 9.85352 0.147199L12.3525 2.64622C12.5475 2.84122 12.5475 3.15825 12.3525 3.35325L9.85352 5.85228C9.53846 6.16671 9 5.9436 9 5.49779V3.87376C8.67972 3.79412 8.34527 3.74974 8 3.74974C5.65608 3.74974 3.75013 5.65585 3.75 7.99974C3.75 8.51874 3.85732 9.01139 4.02832 9.47239L2.88477 10.615C2.4818 9.83 2.25 8.9417 2.25 7.99974C2.25013 4.82885 4.82908 2.24974 8 2.24974C8.34123 2.24974 8.67517 2.28187 9 2.33958V0.500715Z" fill="black"/>
</svg>

<!-- This Source Code Form is subject to the terms of the Mozilla Public
   - License, v. 2.0. If a copy of the MPL was not distributed with this
   - file, You can obtain one at http://mozilla.org/MPL/2.0/. -->
<svg xmlns="http://www.w3.org/2000/svg" width="16" height="16" fill="context-fill" fill-opacity="context-fill-opacity" viewBox="0 0 16 16">
    <path d="M13.114 5.383c.404.785.636 1.674.636 2.617A5.756 5.756 0 0 1 8 13.75a5.7 5.7 0 0 1-1-.09v1.838a.5.5 0 0 1-.854.354l-2.499-2.499a.5.5 0 0 1 0-.707l2.499-2.499a.5.5 0 0 1 .854.354v1.625q.48.122 1 .124A4.254 4.254 0 0 0 12.25 8a4.2 4.2 0 0 0-.28-1.474zM9 .5a.5.5 0 0 1 .854-.353l2.499 2.5a.5.5 0 0 1 0 .706l-2.5 2.5A.5.5 0 0 1 9 5.497V3.874a4.1 4.1 0 0 0-1-.124A4.254 4.254 0 0 0 3.75 8c0 .519.107 1.011.278 1.472l-1.143 1.143A5.7 5.7 0 0 1 2.25 8c0-3.171 2.58-5.75 5.75-5.75q.512.002 1 .09z" />
</svg>
